dist/img/svg/advantages/сo2.svg

<svg width="28" height="24" viewBox="0 0 28 24" fill="none" xmlns="http://www.w3.org/2000/svg">
<path fill-rule="evenodd" clip-rule="evenodd" d="M8.58132 3.32066C9.5537 1.35644 11.6136 0 14 0C16.3863 0 18.4461 1.35641 19.4185 3.32049C19.6691 3.29682 19.9231 3.28471 20.1797 3.28471C24.4987 3.28471 28 6.70311 28 10.9199C28 15.1366 24.4987 18.555 20.1797 18.555H18.3499C18.7197 19.9981 18.3267 21.5892 17.1709 22.7177C15.4197 24.4274 12.5803 24.4274 10.8291 22.7177C9.67327 21.5892 9.28027 19.9981 9.65008 18.555H7.82031C3.50124 18.555 0 15.1366 0 10.9199C0 6.70311 3.50124 3.28471 7.82031 3.28471C8.07703 3.28471 8.33088 3.29692 8.58132 3.32066ZM11.5659 18.185C11.5714 18.1765 11.5768 18.1679 11.5821 18.1592C11.6952 17.9813 11.8309 17.8131 11.9892 17.6586C12.898 16.7712 14.2691 16.6101 15.3458 17.1752L11.494 20.9358C11.0208 20.0764 11.0448 19.0249 11.5659 18.185ZM12.6541 22.0684C13.7308 22.6335 15.1019 22.4724 16.0108 21.585C16.9197 20.6977 17.0847 19.3591 16.5059 18.3078L12.6541 22.0684ZM17.5557 16.9532C17.4385 16.8048 17.3102 16.662 17.1709 16.526C15.4197 14.8162 12.5803 14.8162 10.8291 16.526C10.6897 16.662 10.5614 16.8048 10.4443 16.9532H7.82031C4.40734 16.9532 1.64062 14.252 1.64062 10.9199C1.64062 7.58774 4.40734 4.88649 7.82031 4.88649C8.20508 4.88649 8.58127 4.92108 8.94637 4.98664C9.34404 5.05804 9.73569 4.83589 9.86912 4.46323C10.4661 2.7959 12.0912 1.60178 14 1.60178C15.9086 1.60178 17.5337 2.7958 18.1307 4.46298C18.2642 4.83559 18.6558 5.05771 19.0535 4.98632C19.4181 4.92084 19.7944 4.88649 20.1797 4.88649C23.5926 4.88649 26.3594 7.58775 26.3594 10.9199C26.3594 14.252 23.5926 16.9532 20.1797 16.9532H17.5557ZM14 8.51886C13.5507 8.51886 13.1797 8.88109 13.1797 9.31975V11.4555C13.1797 11.8941 13.5506 12.2563 14 12.2563C14.4493 12.2563 14.8203 11.894 14.8203 11.4555V9.31975C14.8203 8.88109 14.4493 8.51886 14 8.51886ZM11.539 9.31975C11.539 7.99645 12.6446 6.91708 14 6.91708C15.3554 6.91708 16.4609 7.99645 16.4609 9.31975V11.4555C16.4609 12.7787 15.3553 13.8581 14 13.8581C12.6446 13.8581 11.539 12.7788 11.539 11.4555V9.31975ZM5.63279 9.31975C5.63279 7.99523 6.73708 6.91709 8.09373 6.91709H9.73435C10.1874 6.91709 10.5547 7.27566 10.5547 7.71798C10.5547 8.16029 10.1874 8.51886 9.73435 8.51886H8.09373C7.64317 8.51886 7.27341 8.87987 7.27341 9.31975V11.4553C7.27341 11.8952 7.64315 12.2562 8.09373 12.2562H9.67967C10.1327 12.2562 10.5 12.6148 10.5 13.0571C10.5 13.4994 10.1327 13.858 9.67967 13.858H8.09373C6.7371 13.858 5.63279 12.7799 5.63279 11.4553V9.31975ZM19.6313 11.0604C19.4905 11.0208 19.2332 11.0005 18.8334 11.1051C18.3958 11.2196 17.946 10.966 17.8287 10.5388C17.7115 10.1115 17.9712 9.67237 18.4088 9.5579C19.608 9.2442 20.7361 9.49725 21.2403 10.387C21.65 11.1101 21.4565 11.9363 20.9004 12.5206H21.6289C22.0819 12.5206 22.4492 12.8792 22.4492 13.3215C22.4492 13.7638 22.0819 14.1224 21.6289 14.1224H18.3476C17.9878 14.1224 17.67 13.8935 17.5639 13.5578C17.4577 13.2222 17.5879 12.8582 17.8851 12.6601L19.5746 11.5337L19.5746 11.5337C19.7294 11.4305 19.7873 11.3271 19.8061 11.2673C19.8248 11.2082 19.8128 11.1766 19.8047 11.1624C19.7985 11.1514 19.7651 11.098 19.6313 11.0604Z" fill="#78C081"/>
</svg>

<svg width="28" height="24" fill="none" xmlns="http://www.w3.org/2000/svg"><path fill-rule="evenodd" clip-rule="evenodd" d="M8.581 3.32C9.554 1.357 11.614 0 14 0c2.386 0 4.446 1.356 5.419 3.32.25-.023.504-.035.76-.035C24.5 3.285 28 6.703 28 10.92s-3.501 7.635-7.82 7.635h-1.83a4.306 4.306 0 01-1.18 4.163c-1.75 1.71-4.59 1.71-6.34 0a4.306 4.306 0 01-1.18-4.163H7.82C3.501 18.555 0 15.137 0 10.92s3.501-7.635 7.82-7.635c.257 0 .51.012.761.036zm2.985 14.865l.016-.026c.113-.178.249-.346.407-.5a2.897 2.897 0 013.357-.484l-3.852 3.76a2.721 2.721 0 01.072-2.75zm1.088 3.883a2.897 2.897 0 003.357-.483 2.729 2.729 0 00.495-3.277l-3.852 3.76zm4.902-5.115a4.462 4.462 0 00-.385-.427c-1.751-1.71-4.59-1.71-6.342 0-.14.136-.268.279-.385.427H7.82c-3.413 0-6.18-2.701-6.18-6.033 0-3.332 2.767-6.034 6.18-6.034.385 0 .761.035 1.126.1.398.072.79-.15.923-.523.597-1.667 2.222-2.861 4.131-2.861 1.909 0 3.534 1.194 4.13 2.861a.823.823 0 00.924.523c.364-.065.74-.1 1.126-.1 3.413 0 6.18 2.702 6.18 6.034s-2.767 6.033-6.18 6.033h-2.624zM14 8.52c-.45 0-.82.362-.82.8v2.136c0 .44.37.801.82.801.45 0 .82-.362.82-.8V9.32a.815.815 0 00-.82-.801zm-2.461.8c0-1.323 1.106-2.402 2.461-2.402 1.355 0 2.46 1.08 2.46 2.403v2.136c0 1.323-1.105 2.402-2.46 2.402s-2.461-1.08-2.461-2.402V9.32zm-5.906 0c0-1.324 1.104-2.402 2.46-2.402h1.641a.81.81 0 01.82.801.81.81 0 01-.82.8h-1.64c-.45 0-.82.362-.82.802v2.135c0 .44.37.801.82.801H9.68a.81.81 0 01.82.801.81.81 0 01-.82.801H8.094c-1.357 0-2.461-1.078-2.461-2.403V9.32zm13.997 1.74c-.14-.04-.398-.06-.798.045a.823.823 0 01-1.004-.566.8.8 0 01.58-.981c1.199-.314 2.327-.06 2.831.829.41.723.216 1.55-.34 2.134h.729a.81.81 0 01.82.8.81.81 0 01-.82.801h-3.281a.818.818 0 01-.784-.564.79.79 0 01.321-.898l1.69-1.126c.154-.104.212-.207.231-.267.019-.059.007-.09-.001-.105-.006-.01-.04-.064-.174-.102z" fill="#78C081"/></svg>
